Sources/FrostedUI/Resources/Icons.xcassets/pin24.imageset/pin-24.svg

<svg width="24" height="24" viewBox="0 0 24 24" fill="none" xmlns="http://www.w3.org/2000/svg" data-fui-icon="true">
  <path
    d="M15.05 1C16.6792 1.00011 18.0002 2.32102 18.0002 3.9502V9.18359C18.0003 9.43973 18.0595 9.69278 18.1741 9.92188L20.0793 13.7305C21.06 15.6918 19.6334 17.9998 17.4407 18H12.7502V22.25C12.7502 22.6641 12.4143 22.9999 12.0002 23C11.586 23 11.2502 22.6642 11.2502 22.25V18H6.55981C4.3669 17.9999 2.94042 15.6919 3.92114 13.7305L5.82642 9.92188C5.94094 9.6928 6.00023 9.4397 6.00024 9.18359V3.9502C6.00024 2.32096 7.3212 1 8.95044 1H15.05ZM8.95044 2.5C8.14963 2.5 7.50024 3.14938 7.50024 3.9502V9.18359C7.50023 9.67249 7.38584 10.1545 7.16724 10.5918L5.26294 14.4014C4.7809 15.3654 5.48198 16.4999 6.55981 16.5H17.4407C18.5184 16.4998 19.2195 15.3654 18.7375 14.4014L16.8333 10.5918C16.6146 10.1545 16.5003 9.67253 16.5002 9.18359V3.9502C16.5002 3.14945 15.8508 2.50011 15.05 2.5H8.95044Z"
    fill="currentColor"
  />
</svg>

<svg xmlns="http://www.w3.org/2000/svg" width="24" height="24" fill="none" data-fui-icon="true" viewBox="0 0 24 24"><path fill="currentColor" d="M15.05 1A2.95 2.95 0 0 1 18 3.95v5.234c0 .256.06.509.174.738l1.905 3.808c.981 1.962-.446 4.27-2.638 4.27h-4.69v4.25a.75.75 0 0 1-1.5 0V18H6.56c-2.193 0-3.62-2.308-2.639-4.27l1.905-3.808c.115-.23.174-.482.174-.738V3.95A2.95 2.95 0 0 1 8.95 1zm-6.1 1.5c-.8 0-1.45.65-1.45 1.45v5.234c0 .488-.114.97-.333 1.408l-1.904 3.81A1.45 1.45 0 0 0 6.56 16.5h10.88a1.45 1.45 0 0 0 1.297-2.099l-1.904-3.81a3.15 3.15 0 0 1-.333-1.407V3.95c0-.8-.65-1.45-1.45-1.45z"/></svg>
